X:19039
T:Sally Gardens Reel
R:Reel
C:Trad.
O:England
Z:Paul Hardy's Session Tunebook 2015 (see www.paulhardy.net). Creative Commons cc by-nc-sa licenced.
M:4/4
L:1/8
Q:3/8=100
K:G
BA|"G"G2 DG B2 GB|"Em"dB eB dB AB|"G"d2 Bd "Em"eg dB|"Am"Ac BA "D7"GE DE|
"G"G2 DG B2 GB|"Em"dB eB dB AB|"G"d2 Bd "Em"eg dB|"D7"Ac BA "G"G2:|
|:Bc|"G"dg gf g2 dg|"Em"g2 bg ag eg|"Am"ea ag a2 ea|"D7"a2 bg ag eg|
"G"dg gf g2 dg|"Em"g2 bg ag eg|"G"d2 Bd "Em"eg dB|"D7"Ac BA "G"G2:|

